X: 1331
T: The Motherinlaw
R:Reel
N:Collected by McFadden
B:O'Neill's 1331
Z:Transcribed by Trish O'Neil
M:C|
L:1/8
K:D
DEFG BAAA|{d}BAdB AFEF|DEFA BAAA|(3Bcd (AF) EDB,E|
D2(FA) (~BA)AA|(3BdB dB ABde|(3fga ec dBAd|(3Bcd AF EDEF||
ABde ~(fe)ef|defd edBd|ABde (~fe)ec|dBAF EDB,E|
ABde ~(fe)ef|dfaf edBd|(3fga ec dBAd|(3Bcd AF EDD2|]


